X:11004
T:Kerfunten, The
T:Kerfunken Jig; Kerfunteun
R:Jig
C:Colin Hammy Hamilton, abt 1980
O:Ireland
Z:Paul Hardy's Session Tunebook 2015 (see www.paulhardy.net). Creative Commons cc by-nc-sa licenced.
M:6/8
L:1/8
Q:3/8=100
K:D
D2 E|"Bm"F3 FED|FGA Bcd|"D"A2 B BAF|"Em"E3 EDE|
"Bm"F3 FED|FGA Bcd|"D"A2 B BAF|EFE:|
|:DFA|"Bm"d3 def|"G"B3 BAB|"D"d3 def|"A7"fed efe|
"Bm"d3 def|"G"B3 BAB|"D"A2 d dAF|"A"EFE:|"_Out""D"D3|]

